X: 4
T: The Mullingar Races
R: reel
M: 4/4
L: 1/8
K: Dmaj
D2|GABG ABcA|defd dcBA|BcBG ABAG|FGAB cAFD|
GABG ABcA|defd dcBA|B3d cAGF|DGGF G2:|
(3def|g2eg f2ed|gage f2 ed|defg abag|f2 d2 dedc|
B3G AFD2|BdBG ABcA|defd cAGF|DGGF G2:|


Tune 225	Setting 225

